img/service-3.svg

<svg width="60" height="60" viewBox="0 0 60 60" fill="none" xmlns="http://www.w3.org/2000/svg">
<circle cx="30" cy="30" r="30" fill="#8799F9"/>
<path fill-rule="evenodd" clip-rule="evenodd" d="M29.9642 34.4179L32.3642 24.7512C32.5249 24.1038 32.134 23.4477 31.4911 23.2859C30.8481 23.124 30.1966 23.5176 30.0358 24.1651L27.6358 33.8317C27.4751 34.4792 27.866 35.1352 28.509 35.2971C29.1519 35.4589 29.8034 35.0653 29.9642 34.4179Z" fill="white"/>
<path fill-rule="evenodd" clip-rule="evenodd" d="M24.8485 28.9378C25.0735 28.7111 25.2 28.4038 25.2 28.0833V25.6667C25.8627 25.6667 26.4 25.1257 26.4 24.4583C26.4 23.791 25.8627 23.25 25.2 23.25C23.7824 23.25 22.8 24.2393 22.8 25.6667V27.5828L21.9514 28.4372C21.4828 28.9091 21.4828 29.6742 21.9514 30.1461L22.8 31.0005V32.9167C22.8 34.3441 23.7824 35.3333 25.2 35.3333C25.8627 35.3333 26.4 34.7923 26.4 34.125C26.4 33.4577 25.8627 32.9167 25.2 32.9167V30.5C25.2 30.1795 25.0735 29.8722 24.8485 29.6456L24.497 29.2917L24.8485 28.9378Z" fill="white"/>
<path fill-rule="evenodd" clip-rule="evenodd" d="M35.1514 29.6456C34.9264 29.8722 34.8 30.1795 34.8 30.5V32.9167C34.1372 32.9167 33.6 33.4577 33.6 34.125C33.6 34.7923 34.1372 35.3333 34.8 35.3333C36.2175 35.3333 37.2 34.3441 37.2 32.9167V31.0005L38.0485 30.1461C38.5171 29.6742 38.5171 28.9091 38.0485 28.4372L37.2 27.5828V25.6667C37.2 24.2393 36.2175 23.25 34.8 23.25C34.1372 23.25 33.6 23.791 33.6 24.4583C33.6 25.1257 34.1372 25.6667 34.8 25.6667V28.0833C34.8 28.4038 34.9264 28.7111 35.1514 28.9378L35.5029 29.2917L35.1514 29.6456Z" fill="white"/>
<path fill-rule="evenodd" clip-rule="evenodd" d="M29.1771 16.3289C29.0944 16.4073 28.8981 16.5721 28.5913 16.7952C28.0602 17.1815 27.4243 17.5712 26.6871 17.9368C24.5614 18.9909 22.0616 19.625 19.2 19.625C18.5373 19.625 18 20.166 18 20.8333V29.5805C18 34.2995 20.6952 39.1333 24.7812 42.3673C26.2622 43.5396 27.8879 44.4206 29.6584 44.95C29.8813 45.0167 30.1187 45.0167 30.3416 44.95C32.1121 44.4206 33.7378 43.5396 35.2188 42.3672C39.3048 39.1333 42 34.2995 42 29.5805V20.8333C42 20.166 41.4627 19.625 40.8 19.625C37.9384 19.625 35.4386 18.9909 33.3129 17.9368C32.5757 17.5712 31.9398 17.1815 31.4087 16.7952C31.1019 16.5721 30.9056 16.4073 30.8229 16.3289C30.3607 15.8904 29.6393 15.8904 29.1771 16.3289ZM32.2527 20.1049C34.3903 21.1648 36.8459 21.8526 39.6 22.0081V29.5805C39.6 33.4995 37.2783 37.6634 33.7356 40.4673C32.5811 41.3812 31.3363 42.0783 30 42.5252C28.6637 42.0783 27.4189 41.3812 26.2644 40.4673C22.7217 37.6634 20.4 33.4995 20.4 29.5805V22.0081C23.1541 21.8526 25.6097 21.1648 27.7473 20.1049C28.6782 19.6433 29.4304 19.1766 30 18.7619C30.5696 19.1766 31.3218 19.6433 32.2527 20.1049Z" fill="white"/>
</svg>

<svg width="60" height="60" fill="none" xmlns="http://www.w3.org/2000/svg"><circle cx="30" cy="30" r="30" fill="#8799F9"/><path fill-rule="evenodd" clip-rule="evenodd" d="M29.964 34.418l2.4-9.667a1.2 1.2 0 10-2.328-.586l-2.4 9.667c-.16.647.23 1.303.873 1.465a1.2 1.2 0 001.455-.88zM24.849 28.938c.224-.227.351-.534.351-.855v-2.416c.663 0 1.2-.541 1.2-1.209 0-.667-.537-1.208-1.2-1.208-1.418 0-2.4.99-2.4 2.417v1.916l-.849.854a1.214 1.214 0 000 1.71L22.8 31v1.916c0 1.427.982 2.416 2.4 2.416.663 0 1.2-.54 1.2-1.208 0-.667-.537-1.208-1.2-1.208V30.5c0-.32-.127-.628-.351-.854l-.352-.354.352-.354zM35.151 29.646a1.213 1.213 0 00-.351.854v2.417c-.663 0-1.2.54-1.2 1.208 0 .667.537 1.208 1.2 1.208 1.418 0 2.4-.989 2.4-2.416V31l.848-.854a1.214 1.214 0 000-1.709l-.848-.854v-1.916c0-1.428-.983-2.417-2.4-2.417-.663 0-1.2.541-1.2 1.208 0 .668.537 1.209 1.2 1.209v2.416c0 .32.126.628.351.855l.352.354-.352.354z" fill="#fff"/><path fill-rule="evenodd" clip-rule="evenodd" d="M29.177 16.329a6.595 6.595 0 01-.586.466c-.53.386-1.167.776-1.904 1.142-2.126 1.054-4.625 1.688-7.487 1.688-.663 0-1.2.541-1.2 1.208v8.748c0 4.719 2.695 9.552 6.781 12.786 1.481 1.173 3.107 2.054 4.877 2.583.223.067.46.067.684 0 1.77-.53 3.396-1.41 4.877-2.583C39.305 39.133 42 34.3 42 29.581v-8.748c0-.667-.537-1.208-1.2-1.208-2.862 0-5.361-.634-7.487-1.688a13.261 13.261 0 01-1.904-1.142 6.595 6.595 0 01-.586-.466 1.194 1.194 0 00-1.646 0zm3.076 3.776c2.137 1.06 4.593 1.748 7.347 1.903v7.573c0 3.918-2.322 8.082-5.864 10.886-1.155.914-2.4 1.611-3.736 2.058-1.336-.447-2.581-1.144-3.736-2.058C22.722 37.663 20.4 33.5 20.4 29.581v-7.573c2.754-.155 5.21-.843 7.347-1.903.931-.462 1.683-.928 2.253-1.343.57.415 1.322.881 2.253 1.343z" fill="#fff"/></svg>
